X:1
T:Title
%%score 1 2
L:1/8
Q:1/4=105
M:4/4
K:F
V:1 treble nm="Grand Piano, Unnamed-000"
V:2 bass nm="Choir Pad, Erie, 87.87D"
V:1
 [Fc]3 [Fc] [Fd][Fc][FA][CF] | [DF]4 [B,D]4 | C3 [CF] [CA][CF][Fc][FA] | [EG]6 [Fc]2- | %4
w: By~Charles~Crozat~Converse,~1868 * * * * *||||
 [Fc][Fc][Fd][Fc] [FA][CF] [DF]2- | [DF]2 [B,D]4 [A,C]2- | [A,C][CF][FA][CG] [CF][CE] [CF]2- | %7
w: |||
 [CF]4 [EG]3 [_E^F] | [EG][FA][GB][EG] [FA]4 | [Fc]4 [Fd]3 [Fd] | [Fc][FA][GB][FA] [EG]4- | %11
w: ||||
 [EG]2 [Fc]2- [Fc]/ z/ [Fc] [Fd][Fc] | [FA][CF] [DF]4 [B,D]2- | %13
w: ||
 [B,D]2 [A,C]2- [A,C]/ z/ [CF] [FA][CG] | [CF][CE] [CF]6- | [CF]2 z2 z4 |] %16
w: |||
V:2
 [F,A,]3 [F,A,] [F,B,][F,A,][F,C][F,A,] | [B,,B,]4 [B,,F,]4 | %2
 [F,A,]3 [F,A,] [F,A,][F,A,][F,A,][F,C] | [C,C]6 [A,C]2- | %4
 [A,C][A,C]B,[A,C] [F,C][F,A,] [B,,B,]2- | [B,,B,]2 [B,,F,]4 [C,F,]2- | %6
 [C,F,][C,A,][C,C][C,B,] [C,A,][C,G,] [F,A,]2- | [F,A,]4 [C,C]3 [C,C] | %8
 [C,C][C,C][C,C][C,C] [F,C]4 | [F,A,]4 B,3 B, | [A,C][F,C][E,C][F,C] [C,C]4- | %11
 [C,C]2 [A,C]2- [A,C]/ z/ [F,C] [F,B,][F,A,] | [F,C][F,A,] [B,,B,]4 [B,,F,]2- | %13
 [B,,F,]2 [C,F,]2- [C,F,]/ z/ [C,A,] [C,C][C,B,] | [C,A,][C,G,] [F,A,]6- | [F,A,]2 z2 z4 |] %16

